src/pos-icons/image-broken.svg

<svg height="24" viewBox="0 0 24 24" width="24" xmlns="http://www.w3.org/2000/svg"><path d="m19 3a2 2 0 0 1 2 2v6h-2v2h-2v2h-2v2h-2v2h-2v2h-6c-1.11 0-2-.9-2-2v-14a2 2 0 0 1 2-2zm2 12v4a2 2 0 0 1 -2 2h-4v-2h2v-2h2v-2zm-2-6.5a.5.5 0 0 0 -.5-.5h-13a.5.5 0 0 0 -.5.5v7a.5.5 0 0 0 .5.5h5.5v-1h2v-2h2v-2h2v-2h2z"/></svg>

<?xml version="1.0" encoding="UTF-8"?><!DOCTYPE svg PUBLIC "-//W3C//DTD SVG 1.1//EN" "http://www.w3.org/Graphics/SVG/1.1/DTD/svg11.dtd"><svg xmlns="http://www.w3.org/2000/svg" xmlns:xlink="http://www.w3.org/1999/xlink" version="1.1" id="mdi-image-broken" width="24" height="24" viewBox="0 0 24 24"><path d="M19,3A2,2 0 0,1 21,5V11H19V13H19L17,13V15H15V17H13V19H11V21H5C3.89,21 3,20.1 3,19V5A2,2 0 0,1 5,3H19M21,15V19A2,2 0 0,1 19,21H19L15,21V19H17V17H19V15H21M19,8.5A0.5,0.5 0 0,0 18.5,8H5.5A0.5,0.5 0 0,0 5,8.5V15.5A0.5,0.5 0 0,0 5.5,16H11V15H13V13H15V11H17V9H19V8.5Z" /></svg>
